src/Pure-Dark/16/symbolic/categories/emoji-objects-symbolic.svg

<?xml version="1.0" encoding="UTF-8" standalone="no"?>
<svg
   width="16"
   height="16"
   version="1.1"
   id="svg1"
   sodipodi:docname="emoji-objects-symbolic.svg"
   inkscape:version="1.4.2 (ebf0e940d0, 2025-05-08)"
   xmlns:inkscape="http://www.inkscape.org/namespaces/inkscape"
   xmlns:sodipodi="http://sodipodi.sourceforge.net/DTD/sodipodi-0.dtd"
   xmlns="http://www.w3.org/2000/svg"
   xmlns:svg="http://www.w3.org/2000/svg">
  <defs
     id="defs1">
     <style
        id="current-color-scheme"
        type="text/css">
        .ColorScheme-Text { color:#f2f2f2; }
        .ColorScheme-NeutralText { color:#f67400; }
        .ColorScheme-PositiveText { color:#37c837; }
        .ColorScheme-NegativeText { color:#f44336; }
        .ColorScheme-Highlight { color:#3daee9; }
     </style>
  </defs>
  <sodipodi:namedview
     id="namedview1"
     pagecolor="#ffffff"
     bordercolor="#000000"
     borderopacity="0.25"
     inkscape:showpageshadow="2"
     inkscape:pageopacity="0.0"
     inkscape:pagecheckerboard="0"
     inkscape:deskcolor="#d1d1d1"
     inkscape:zoom="49.6875"
     inkscape:cx="8"
     inkscape:cy="8"
     inkscape:window-width="1920"
     inkscape:window-height="1010"
     inkscape:window-x="0"
     inkscape:window-y="0"
     inkscape:window-maximized="1"
     inkscape:current-layer="svg1" />
  <path
     id="path1"
     style="fill:currentColor"
     class="ColorScheme-Text"
     d="M 8.5097656 0 A 5.5 5.042 0 0 0 4.9648438 1.1796875 A 5.5 5.042 0 0 0 3.7363281 7.5625 C 4.5033281 8.6125 6 9.643 6 11 L 6.0039062 11 L 6.0019531 13 L 6.0019531 14.947266 C 5.9629531 15.480266 6.4141719 15.983094 6.9511719 15.996094 C 7.9501719 15.998094 8.9502187 15.997047 9.9492188 15.998047 C 10.482219 16.037047 10.986047 15.585781 10.998047 15.050781 C 11.001047 14.383781 10.999 11.666 11 11 C 11 9.643 12.496672 8.6125 13.263672 7.5625 A 5.5 5.042 0 0 0 12.035156 1.1796875 A 5.5 5.042 0 0 0 8.5097656 0 z M 8.5 0.91601562 A 4.5 4.125 0 0 1 13 5.0410156 A 4.5 4.125 0 0 1 12.337891 7.1777344 C 11.826891 7.9487344 9.948 9.435 10 11 L 7 11 C 7.052 9.418 5.1217187 7.9104844 4.6367188 7.1464844 A 4.5 4.125 0 0 1 4 5.0410156 A 4.5 4.125 0 0 1 8.5 0.91601562 z M 10.013672 5.4960938 A 0.5 0.5 0 0 0 9.640625 5.6484375 C 9.458625 5.8304375 8.8460625 6.716 8.9140625 7 L 8.0742188 7 C 8.1432188 6.717 7.5286563 5.8304375 7.3476562 5.6484375 A 0.498 0.498 0 0 0 6.9941406 5.5019531 A 0.498 0.498 0 0 0 6.640625 6.3554688 C 6.822625 6.5384687 7.724 7.1600781 8 7.0800781 L 8 10 L 9 10 L 9 7.0820312 C 9.288 7.1440313 10.166656 6.5364688 10.347656 6.3554688 A 0.5 0.5 0 0 0 10.013672 5.4960938 z M 7 12 L 10 12 L 10 15 L 7 15 L 7 14 L 8.5019531 14 L 8.5019531 13 L 7 13 L 7 12 z " />
</svg>

<svg xmlns="http://www.w3.org/2000/svg" width="16" height="16"><path d="M8.51 0a5.5 5.042 0 0 0-3.545 1.18 5.5 5.042 0 0 0-1.229 6.383C4.503 8.613 6 9.643 6 11h.004l-.002 2v1.947c-.039.533.413 1.037.95 1.05.999.002 1.998 0 2.997.001.533.039 1.037-.412 1.049-.947.003-.667.001-3.385.002-4.051 0-1.357 1.497-2.388 2.264-3.438a5.5 5.042 0 0 0-1.229-6.382A5.5 5.042 0 0 0 8.51 0zM8.5.916A4.5 4.125 0 0 1 13 5.041a4.5 4.125 0 0 1-.662 2.137C11.827 7.949 9.948 9.435 10 11H7c.052-1.582-1.878-3.09-2.363-3.854A4.5 4.125 0 0 1 4 5.041 4.5 4.125 0 0 1 8.5.916zM6.994 5.502a.498.498 0 0 0-.353.853c.182.183 1.083.805 1.359.725V10h1V7.082c.288.062 1.167-.546 1.348-.727a.5.5 0 1 0-.707-.707C9.459 5.83 8.846 6.716 8.914 7h-.84c.069-.283-.545-1.17-.726-1.352a.498.498 0 0 0-.354-.146zM7 12h3v3H7v-1h1.502v-1H7v-1z" style="font-variation-settings:normal" fill="#f2f2f2"/></svg>
